!!!!SEGMENT: pl-gd--ee-1638--005-004_marenzio-luca--il-primo-libro-de-madrigali-spirituali-a-cinque-voci-qual-mormorio-soaue.krn
!!!cenid: 15xx:957
!!!COM: Marenzio, Luca
!!!COM-rismID: pe30003955
!!!CDT: ~1553-1599/08/22
!!!CNT: Italian
!!!GTL: Il Primo libro de madrigali spirituali a cinque voci
!!!OTL: Qual mormorio soaue
!!!OMV: 004
!!!PDT: 1588
!!!AGN:
!!!SMS-siglum: PL-GD
!!!SMS-shelfmark: Ee 1638
!!!SMS-shelfwork: 005-004 G
!!!SMS-variant:
!!!SMS-altvar:
!!!NIFC-rismSourceID: 990039269
!!!NIFC-islandoraID: pl-gd:57883
!!!URL-pdf-islandora: https://repozytorium.nifc.pl/islandora/object/pl-gd%3A57883/datastream/PDF/view
!!!URL-scan: https://polish.musicsources.pl/pl/lokalizacje/galeria/klocki-introligatorskie/655 @EN{Scan on Polish Music Sources Website} @PL{Skany w portalu Dziedzictwo Muzyki Polskiej w otwartym dostępie}
!!!ONB-nifc: UWAGA: zbiór na stronach: Canto: s. 666-677, Alto: s. 514-525, Tenore: s. 362-373, Bassus: s. 210-221, Quinto: s. 58-69. Uwaga: utwory podzielone wg tytułów w spisach treści dostępnych na końcu każdej księgi głosowej.
!!!AIN: 1 alto 1 bass 2 soprn 1 tenor
!!!key: d:dor
**kern	**text	**kern	**text	**kern	**text	**kern	**text	**kern	**text
*part5	*part5	*part4	*part4	*part3	*part3	*part2	*part2	*part1	*part1
*staff5	*staff5	*staff4	*staff4	*staff3	*staff3	*staff2	*staff2	*staff1	*staff1
*I"BASSO	*	*I"TENORE	*	*I"ALTO	*	*I"CANTO	*	*I"QVINTO	*
*mI"Basso	*	*mI"Tenore	*	*mI"Alto	*	*mI"Soprano II	*	*mI"Soprano I	*
*I'B	*	*I'T	*	*I'A	*	*I'S	*	*I'V 5	*
*	*	*	*	*	*	*mI'S II	*	*mI'S I	*
*Ibass	*	*Itenor	*	*Ialto	*	*Isoprn	*	*Isoprn	*
*ICvox	*	*ICvox	*	*ICvox	*	*ICvox	*	*ICvox	*
*clefF4	*	*clefC4	*	*clefC3	*	*clefC1	*	*clefC1	*
*	*	*mclefGv2	*	*mclefG2	*	*mclefG2	*	*mclefG2	*
*k[]	*	*k[]	*	*k[]	*	*k[]	*	*k[]	*
*d:dor	*	*d:dor	*	*d:dor	*	*d:dor	*	*d:dor	*
*M2/1	*	*M2/1	*	*M2/1	*	*M2/1	*	*M2/1	*
*met(C|)	*	*met(C)	*	*met(C)	*	*met(C)	*	*met(C)	*
*mmet(c)	*	*mmet(c)	*	*mmet(c)	*	*mmet(c)	*	*mmet(c)	*
=1-	=1-	=1-	=1-	=1-	=1-	=1-	=1-	=1-	=1-
!	!	!	!	!	!LO:MO:mod=Qval	!	!	!	!
00r	.	2r	.	1d	QVal	1r	.	00r	.
!	!	!	!LO:MO:mod=Qval	!	!	!	!	!	!
.	.	2d\	QVal	.	.	.	.	.	.
!	!	!	!	!	!	!	!LO:MO:mod=Qval	!	!
.	.	2c#X\	mor-	2e\	mor-	1a	QVal	.	.
.	.	1d\	-mo-	1f\	-mo-	.	.	.	.
=2-	=2-	=2-	=2-	=2-	=2-	=2-	=2-	=2-	=2-
.	.	.	.	.	.	2b\	mor-	.	.
.	.	4cny\	-rio	4e\	-ri-	1cc	-mo-	.	.
.	.	4B\	ſo-	4d\	-o	.	.	.	.
.	.	2A/	-a-	2c/	ſo-	.	.	.	.
.	.	2B\	-ue	2d\	-a-	4b\	-rio	.	.
.	.	.	.	.	.	4a\	ſo-	.	.
=3-	=3-	=3-	=3-	=3-	=3-	=3-	=3-	=3-	=3-
00r	.	0c	D'au-	2e\	-ue	2g/	-a-	0r	.
.	.	.	.	2.f\	D'au-	2f/	-ue	.	.
.	.	.	.	.	.	1g	D'au-	.	.
.	.	.	.	8e\	.	.	.	.	.
.	.	.	.	8d\	.	.	.	.	.
.	.	.	.	2e\	.	.	.	.	.
=4-	=4-	=4-	=4-	=4-	=4-	=4-	=4-	=4-	=4-
.	.	2F/	-ra	2c/	-ra	2a\	-ra	2r	.
.	.	2F/	tra	2f\	tra	2a\	tra	2cc\	Tra
!	!	!	!	!	!LO:MO:mod=frond	!	!	!	!LO:MO:mod=frond
.	.	2c\	frond'	4e\	fro(n)d	2.g/	frond'	2cc\	fro(n)d'
.	.	.	.	4e\	e	.	.	.	.
.	.	2G/	e	2.d\	fron-	.	.	2b\	e
.	.	.	.	.	.	4f/	e	.	.
=5-	=5-	=5-	=5-	=5-	=5-	=5-	=5-	=5-	=5-
0r	.	1A	fron-	.	.	1e	fron-	1a	fron-
.	.	.	.	8c/	.	.	.	.	.
.	.	.	.	8B/	.	.	.	.	.
.	.	.	.	2c#X/	.	.	.	.	.
*	*	*	*	*custos:d	*	*	*	*	*
!	!	!	!	!LO:LB:g=original	!	!	!	!	!
.	.	1D	-de	1d	-de	1f#X	-de	1a	-de
=6-	=6-	=6-	=6-	=6-	=6-	=6-	=6-	=6-	=6-
0D	Dolc'	0A	Dolc'	0d	Dolc'	0a	Dolc'	0f#X	Dolc'
*	*	*custos:G	*	*	*	*	*	*	*
!	!	!LO:LB:g=original	!	!	!	!	!	!	!
=7-	=7-	=7-	=7-	=7-	=7-	=7-	=7-	=7-	=7-
1.GG	ar-	1.G	ar-	1.d	ar-	1.b	ar-	1.g	ar-
2GG/	-mo-	2D/	-mo-	2d\	-mo-	2b\	-mo-	2g/	-mo-
*	*	*	*	*	*	*custos:b	*	*	*
!	!	!	!	!	!	!LO:LB:g=original	!	!	!
=8-	=8-	=8-	=8-	=8-	=8-	=8-	=8-	=8-	=8-
2GG/	-nia	1G	-nia	2d\	-nia	1b	-nia	2g/	-nia
2G\	d'an-	.	.	4r	.	.	.	2b\	d'an-
.	.	.	.	4d\	d'an-	.	.	.	.
4.F\	-ge-	2r	.	4.a\	-ge-	2r	.	4.cc\	-ge-
8E\	-li-	.	.	8g\	-li-	.	.	8cc\	-li-
4F\	-co	4r	.	4a\	-co	4r	.	4cc\	-co
4G\	con-	4G/	d'an-	4d\	con-	4b\	d'an-	4b\	con-
*	*	*	*	*	*	*	*	*custos:a	*
!	!	!	!	!	!	!	!	!LO:LB:g=original	!
=9-	=9-	=9-	=9-	=9-	=9-	=9-	=9-	=9-	=9-
2A\	-cen-	4.F/	-ge-	2f\	-cen-	4.cc\	-ge-	2a\	-cen-
.	.	8E/	-li-	.	.	8cc\	-li-	.	.
4A\	-to	4F/	-co	4f\	-to	4cc\	-co	4a\	-to
4G\	d'an-	4G/	con-	4d\	d'an-	4b\	con-	4b\	d'an-
4.F\	-ge-	2A/	-cen-	4.f\	-ge-	2a\	-cen-	4.cc\	-ge-
8E\	-li-	.	.	8g\	-li-	.	.	8cc\	-li-
*custos:F	*	*	*	*	*	*	*	*	*
!LO:LB:g=original	!	!	!	!	!	!	!	!	!
4F\	-co	4A/	-to	4a\	-co	4a\	-to	4cc\	-co
*	*	*	*ij	*	*	*	*ij	*	*
4G\	con-	4B\	d'an-	4d\	d'an-	4dd\	d'an-	4b\	con-
=10-	=10-	=10-	=10-	=10-	=10-	=10-	=10-	=10-	=10-
1C	-cen-	4.c\	-ge-	4.e\	-ge-	4.cc\	-ge-	1g	-cen-
.	.	8d\	-li-	8f\	-li-	8b\	-li-	.	.
.	.	4e\	-co	4g\	-co	4cc\	-co	.	.
.	.	4d\	con-	4f\	con-	4dd\	con-	.	.
1C	-to	2c\	-cen-	2e\	-cen-	2ee\	-cen-	1g	-to
.	.	2G/	-to	2cny/	-to	2e/	-to	.	.
*	*	*	*Xij	*custos:B	*	*	*Xij	*	*
!	!	!	!	!LO:LB:g=original	!	!	!	!	!
=11-	=11-	=11-	=11-	=11-	=11-	=11-	=11-	=11-	=11-
1E	Que-	1G#X	Que-	1B	Que-	1e	Que-	0r	.
1E	-ta-	1G#	-ta-	1B	-ta-	1e	-ta-	.	.
*	*	*custos:A	*	*	*	*	*	*	*
!	!	!LO:LB:g=original	!	!	!	!	!	!	!
=12-	=12-	=12-	=12-	=12-	=12-	=12-	=12-	=12-	=12-
4AA/	-ſi	2A/	-ſi	2c/	-ſi	2e/	-ſi	4r	.
4.A\	l'ae-	.	.	.	.	.	.	4.cc\	l'ae-
.	.	2r	.	4r	.	4r	.	.	.
8G\	.	.	.	.	.	.	.	8b\	.
8A\	.	.	.	4.e\	l'ae-	4.cc\	l'ae-	8cc\	.
8B\	.	.	.	.	.	.	.	8dd\	.
4c\	.	2r	.	.	.	.	.	4ee\	-re
.	.	.	.	8d\	.	8b\	.	.	.
4C/	re_e'l	.	.	8e\	.	8cc\	.	4e/	e'l
.	.	.	.	8f\	.	8dd\	.	.	.
8C/	ven-	4r	.	4g\	.	4ee\	-re	8e/	ven-
8D/	.	.	.	.	.	.	.	8fny/	.
8E\	.	4Gny/	e'l	4g\	re_e'l	4ee\	e'l	8g/	.
8F\	.	.	.	.	.	.	.	8a\	.
*	*	*	*	*	*	*custos:dd	*	*	*
!	!	!	!	!	!	!LO:LB:g=original	!	!	!
=13-	=13-	=13-	=13-	=13-	=13-	=13-	=13-	=13-	=13-
1G	.	8G/	ven-	1g	ven-	8dd\	ven-	1b	.
.	.	8A/	.	.	.	8cc\	.	.	.
.	.	8B\	.	.	.	8b\	.	.	.
.	.	8c\	.	.	.	8a\	.	.	.
.	.	2d\	.	.	.	2g/	.	.	.
2G\	-to	2B\	-to	2d\	-to'	2g/	-to	1b	-to
2GG/	Che	2G/	Che	2B/	che	2d/	che	.	.
=14-	=14-	=14-	=14-	=14-	=14-	=14-	=14-	=14-	=14-
1FF	ta-	1A	ta-	1c	ta-	1fny	ta-	0r	.
1FF	ce_il	1F	ce_il	1A	ce_il	1c	ce_il	.	.
*custos:AA	*	*	*	*	*	*	*	*	*
!LO:LB:g=original	!	!	!	!	!	!	!	!	!
=15-	=15-	=15-	=15-	=15-	=15-	=15-	=15-	=15-	=15-
1AA	tut-	1E	tut-	1A	tut-	1c	tut-	1r	.
*	*	*	*	*	*	*	*	*custos:b	*
!	!	!	!	!	!	!	!	!LO:LB:g=original	!
2EE/	-to	1E	to_e	1G#X	to_e	1B	-to	2r	.
4r	.	.	.	.	.	.	.	4r	.
4E\	e	.	.	.	.	.	.	4b\	e
=16-	=16-	=16-	=16-	=16-	=16-	=16-	=16-	=16-	=16-
4.E\	ri-	2G/	ri-	2B/	ri-	4r	.	4.ee\	ri-
.	.	.	.	.	.	4b\	e	.	.
8G\	-ſo-	.	.	.	.	.	.	8dd\	-ſo-
4C/	-nar	2G/	-ſo-	2g\	-ſo-	4.ee\	ri-	4cc\	-nar
4E\	e	.	.	.	.	.	.	4b\	e
.	.	.	.	.	.	8dd\	-ſo-	.	.
4.E\	ri-	1G	-nar	4g\	-nar	4cc\	-nar	4.ee\	ri-
.	.	.	.	4g\	e	4b\	e	.	.
8G\	-ſo-	.	.	.	.	.	.	8dd\	-ſo-
1C/	-nar	.	.	4.g\	ri-	4.ee\	ri-	2cc\	-nar
.	.	.	.	8f\	-ſo-	8dd\	-ſo-	.	.
=17-	=17-	=17-	=17-	=17-	=17-	=17-	=17-	=17-	=17-
.	.	1G	ſol	2e\	-nar	2cc\	-nar	1g	ſol
2G\	ſol	.	.	2d\	ſol	2b\	ſol	.	.
*	*	*	*	*custos:f	*	*	*	*	*
!	!	!	!	!LO:LB:g=original	!	!	!	!	!
0F	A-	2.A/	A-	0f	A-	0a	A-	0cc	A-
.	.	4G/	.	.	.	.	.	.	.
=18-	=18-	=18-	=18-	=18-	=18-	=18-	=18-	=18-	=18-
.	.	1F	.	.	.	.	.	.	.
*	*	*custos:G	*	*	*	*	*	*	*
!	!	!LO:LB:g=original	!	!	!	!	!	!	!
1C	-ue	0G	-ue	1e	-ue	1g	-ue	1cc	-ue
=19-	=19-	=19-	=19-	=19-	=19-	=19-	=19-	=19-	=19-
1E	s'o-	.	.	1B	s'o-	2r	.	1g	s'o-
.	.	.	.	.	.	1g	s'o-	.	.
1D	-de	1r	.	1d	-de	.	.	1a	-de
.	.	.	.	.	.	2f#X/	de_e	.	.
*	*	*	*	*	*	*custos:g	*	*	*
!	!	!	!	!	!	!LO:LB:g=original	!	!	!
=20-	=20-	=20-	=20-	=20-	=20-	=20-	=20-	=20-	=20-
0r	.	0r	.	1r	.	2g/	ſo-	2r	.
.	.	.	.	.	.	4a\	-la	2cc\	e
.	.	.	.	.	.	4cc\	ri-	.	.
.	.	.	.	2r	.	2b\	-ſpon-	2g/	ſo-
.	.	.	.	2f\	e	2cc\	-de	4a\	-la
.	.	.	.	.	.	.	.	4cc\	ri-
=21-	=21-	=21-	=21-	=21-	=21-	=21-	=21-	=21-	=21-
1r	.	2r	.	2d\	ſo-	1r	.	2b\	-ſpon-
.	.	2c\	e	4e\	-la	.	.	4.cc\	.
.	.	.	.	4g\	ri-	.	.	.	.
.	.	.	.	.	.	.	.	8b\	.
*	*	*	*	*	*	*	*	*custos:a	*
!	!	!	!	!	!	!	!	!LO:LB:g=original	!
2r	.	2d\	ſo-	2f#X\	-ſpon-	2r	.	2a\	-de
2C/	e	4e\	-la	2g\	-de	2cc\	e	4r	.
.	.	4c\	ri-	.	.	.	.	4e/	e
=22-	=22-	=22-	=22-	=22-	=22-	=22-	=22-	=22-	=22-
2G\	ſo-	2B\	-ſpon-	2r	.	2dd\	ſo-	2g/	ſo-
*custos:A	*	*	*	*	*	*	*	*	*
!LO:LB:g=original	!	!	!	!	!	!	!	!	!
4A\	-la	1.A	-de	4r	.	1a	-la	4e/	-la
4D/	ri-	.	.	4d\	e	.	.	4f/	ri-
2C#X/	-ſpon-	.	.	2e\	ſo-	.	.	2e/	-ſpon-
2D/	-de	.	.	4fny\	-la	2fny/	ri-	2d/	-de
.	.	.	.	4d\	ri-	.	.	.	.
=23-	=23-	=23-	=23-	=23-	=23-	=23-	=23-	=23-	=23-
00r	.	00r	.	2c#X/	-ſpon-	2e/	-ſpon-	2r	.
.	.	.	.	2d\	-de	2d/	-de	4r	.
.	.	.	.	.	.	.	.	4.dd\	can-
.	.	.	.	4g\	can-	4r	.	.	.
.	.	.	.	.	.	.	.	8cc\	-di-
.	.	.	.	8g\	-di-	4.dd\	can-	4b\	-da
.	.	.	.	8g\	-da	.	.	.	.
.	.	.	.	4f#X\	ver-	.	.	4a\	ver-
.	.	.	.	.	.	8cc\	-di-	.	.
.	.	.	.	4g\	-gi-	4b\	-da	4g/	-g[i]-
*	*	*	*	*custos:d	*	*	*	*	*
!	!	!	!	!LO:LB:g=original	!	!	!	!	!
=24-	=24-	=24-	=24-	=24-	=24-	=24-	=24-	=24-	=24-
.	.	.	.	1d	-nel-	4a\	vir-	4f#X/	-nel-
.	.	.	.	.	.	4g/	-gi-	2g/	.
.	.	.	.	.	.	2a\	-n[e]l-	.	.
.	.	.	.	.	.	.	.	4f#X/	.
.	.	.	.	2Gny/	-la	2b\	-la	2g/	-la
.	.	.	.	2cny/	Ec-	2g/	Ec-	2e/	Ec-
=25-	=25-	=25-	=25-	=25-	=25-	=25-	=25-	=25-	=25-
00r	.	00r	.	4c/	-co	4g/	-co	4e/	-co
.	.	.	.	4c/	ſi-	4g/	ſi-	4e/	ſi-
.	.	.	.	1c	-gnor	1g	-gnor	1e	-gnor
*	*	*	*	*	*	*	*	*custos:d	*
!	!	!	!	!	!	!	!	!LO:LB:g=original	!
.	.	.	.	2d\	l'an-	2f/	l'an-	2d/	l'an-
*	*	*	*	*	*	*custos:e	*	*	*
!	!	!	!	!	!	!LO:LB:g=original	!	!	!
=26-	=26-	=26-	=26-	=26-	=26-	=26-	=26-	=26-	=26-
.	.	.	.	1A	-cel-	1e	-cel-	1c#X	-cel-
.	.	.	.	1A	-la	1e	-la	1c#	-la
=27-	=27-	=27-	=27-	=27-	=27-	=27-	=27-	=27-	=27-
00r	.	00r	.	2d\	A	2f#X/	A	4r	.
.	.	.	.	.	.	.	.	4d/	A
.	.	.	.	4.c/	cui	4.g/	cui	4.e/	cui
.	.	.	.	8c/	per	8g/	per	8e/	per
.	.	.	.	4c/	o-	4g/	o-	4e/	o-
.	.	.	.	4A/	-be-	4a\	-be-	4f#X/	-be-
.	.	.	.	2G/	-dir	2b\	-dir	2g/	-dir
=28-	=28-	=28-	=28-	=28-	=28-	=28-	=28-	=28-	=28-
.	.	.	.	1g	nul-	1b	nul-	2r	.
.	.	.	.	.	.	.	.	1dd	nul-
.	.	.	.	2fny\	-la	1.a	la	.	.
.	.	.	.	2e\	gli_è	.	.	1cc\	-la
=29-	=29-	=29-	=29-	=29-	=29-	=29-	=29-	=29-	=29-
0r	.	0r	.	1d	gra-	.	.	.	.
.	.	.	.	.	.	2b\	gli_è	1b	gli_è
.	.	.	.	2.c/	-ue	1cc	gra-	.	.
.	.	.	.	.	.	.	.	1a\	gra-
.	.	.	.	4d\	.	.	.	.	.
*	*	*	*	*custos:e	*	*	*	*	*
!	!	!	!	!LO:LB:g=original	!	!	!	!	!
=30-	=30-	=30-	=30-	=30-	=30-	=30-	=30-	=30-	=30-
1r	.	1r	.	1e	.	1b	-ue	.	.
.	.	.	.	.	.	.	.	2g#X/	-ue
4r	.	4r	.	0r	.	4r	.	4r	.
4.Cny/	O	4.c\	O	.	.	4.g/	O	4.ee\	O
8C/	che	8c\	che	.	.	8g/	che	8ee\	che
4C/	lie-	4c\	lie-	.	.	4g/	lie-	4ee\	lie-
=31-	=31-	=31-	=31-	=31-	=31-	=31-	=31-	=31-	=31-
4G\	-ta	4B\	-ta	.	.	4g/	-ta	4dd\	-ta
4A\	no-	4c\	no-	.	.	4e/	no-	4cc\	ne-
*	*	*	*	*	*	*	*	*custos:b	*
!	!	!	!	!	!	!	!	!LO:LB:g=original	!
2G\	-uel-	2d\	-uel-	.	.	2g/	-uel-	2b\	-uel-
4C/	-la	1c	-la	4r	.	4e/	-la	4cc\	-la
*	*ij	*	*	*	*	*	*ij	*	*ij
4.c\	O	.	.	4.e\	O	4.ee\	O	4.gny/	O
8c\	che	.	.	8e\	che	8ee\	che	8g/	che
4c\	lie-	.	.	4e\	lie-	4ee\	lie-	4g/	lie-
*	*	*	*	*	*	*custos:dd	*	*	*
!	!	!	!	!	!	!LO:LB:g=original	!	!	!
=32-	=32-	=32-	=32-	=32-	=32-	=32-	=32-	=32-	=32-
4G\	-ta	1r	.	4B/	-ta	4dd\	-ta	4g/	-ta
4A\	no-	.	.	4c/	no-	4cc\	no-	4e/	no-
*custos:G	*	*	*	*	*	*	*	*	*
!LO:LB:g=original	!	!	!	!	!	!	!	!	!
2G\	-uel-	.	.	2d\	-uel-	2b\	-uel-	2g/	-uel-
2C/	-la	2r	.	2e\	-la	1cc	-la	2g/	-la
*	*Xij	*	*	*	*	*	*Xij	*	*Xij
2F\	Per-	2c\	Per-	2f\	Per-	.	.	2a\	Per-
*	*	*custos:c	*	*	*	*	*	*	*
!	!	!LO:LB:g=original	!	!	!	!	!	!	!
=33-	=33-	=33-	=33-	=33-	=33-	=33-	=33-	=33-	=33-
2.F\	-che	2.c\	-che	2.f\	-che	0r	.	2.a\	-che
4C/	pa-	4c\	pa-	4e\	pa-	.	.	4g/	pa-
2C/	-reg-	2c\	-reg-	2e\	-reg-	.	.	2g/	-reg-
2D/	gi_ho-	1A\	gi_ho-	2d\	gi ho-	.	.	2fny/	gi ho-
=34-	=34-	=34-	=34-	=34-	=34-	=34-	=34-	=34-	=34-
1E	-mai	.	.	1B	-mai	2r	.	1e	-mai
.	.	2G#X/	-mai	.	.	1ee	la	.	.
1A	la	1r	.	1c	la	.	.	2r	.
.	.	.	.	.	.	1e/	ter-	1ee\	la
=35-	=35-	=35-	=35-	=35-	=35-	=35-	=35-	=35-	=35-
1AA	ter-	1A	la	1c	ter-	.	.	.	.
.	.	.	.	.	.	2a\	ra_e'l	1e	ter-
1A	ra_e'l	2AA/	ter-	2e\	ra_e'l	0cc	cie-	.	.
.	.	2F/	-ra_e'l	2.f\	cie-	.	.	2a\	ra_e'l
=36-	=36-	=36-	=36-	=36-	=36-	=36-	=36-	=36-	=36-
1c	cie-	1C	cie-	.	.	.	.	1g	cie-
.	.	.	.	8e\	.	.	.	.	.
.	.	.	.	8d\	.	.	.	.	.
.	.	.	.	2e\	.	.	.	.	.
1F	-lo	2c\	-lo	1f	-lo	2.cc\	-lo	2a\	-lo
.	.	2.A/	ver-	.	.	.	.	2.cc\	ver-
.	.	.	.	.	.	4dd\	.	.	.
*	*	*	*	*custos:e	*	*	*	*	*
!	!	!	!	!LO:LB:g=original	!	!	!	!	!
=37-	=37-	=37-	=37-	=37-	=37-	=37-	=37-	=37-	=37-
1r	.	.	.	2r	.	1ee	.	.	.
.	.	4A/	-gi-	.	.	.	.	4cc\	-gi-
.	.	2G#X/	-ne	2.e\	ver-	.	.	2b\	-ne
*	*	*	*	*	*	*	*	*custos:cc	*
!	!	!	!	!	!	!	!	!LO:LB:g=original	!
2r	.	2A/	Don-	.	.	2r	.	2cc\	Don-
.	.	.	.	4c/	-gi-	.	.	.	.
2.A\	ver-	2F/	na_à	2c/	-ne	2.cc\	ver-	2a\	-na
=38-	=38-	=38-	=38-	=38-	=38-	=38-	=38-	=38-	=38-
.	.	1E	Dio	1.e	Don-	.	.	2r	.
4A\	-gi-	.	.	.	.	4cc\	-gi-	.	.
2G#X\	-ne	.	.	.	.	2b\	-ne	2.ee\	ver-
2A\	Don-	1A	di	.	.	2cc\	Don-	.	.
.	.	.	.	.	.	.	.	4ee\	-gi-
2F\	na_à	.	.	2A/	na_à	2a\	na_à	2dd\	-ne
*custos:E	*	*	*	*	*	*	*	*	*
!LO:LB:g=original	!	!	!	!	!	!	!	!	!
=39-	=39-	=39-	=39-	=39-	=39-	=39-	=39-	=39-	=39-
1E	Dio	2B\	ſe	1e	Dio	2g/	Dio	2.ee\	Do(n)-
.	.	2c\	fà	.	.	2g/	di	.	.
.	.	.	.	.	.	.	.	4dd\	.
*	*	*custos:F	*	*	*	*	*	*	*
!	!	!LO:LB:g=original	!	!	!	!	!	!	!
0r	.	2.F/	ve-	2r	.	2a\	ſe	2cc\	.
.	.	.	.	2.d\	ver-	2fny/	fà	2a\	na_à
.	.	4Gny/	.	.	.	.	.	.	.
=40-	=40-	=40-	=40-	=40-	=40-	=40-	=40-	=40-	=40-
.	.	1A	.	.	.	1e	ve-	1.a	Dio
.	.	.	.	4d\	-gi-	.	.	.	.
.	.	.	.	2c#X/	-ne	.	.	.	.
2r	.	1D	-lo	2d\	Do(n)-	2.f/	-lo	.	.
*	*ij	*	*	*	*	*	*	*	*
2.D/	ver-	.	.	2A/	na_à	.	.	2.f/	ver-
.	.	.	.	.	.	4g/	.	.	.
*	*	*	*	*	*	*custos:a	*	*	*
!	!	!	!	!	!	!LO:LB:g=original	!	!	!
=41-	=41-	=41-	=41-	=41-	=41-	=41-	=41-	=41-	=41-
.	.	2r	.	2A/	Dio	1a	.	.	.
4D/	-gi-	.	.	.	.	.	.	4f/	-gi-
2C#X/	-ne	2.A/	ver-	2e\	di	.	.	2e/	-ne
2D/	Don-	.	.	2f#X\	ſe	2a\	di	2d/	Do(n)-
.	.	4A/	-gi-	.	.	.	.	.	.
2BB/	na_à	2G/	-ne	2g\	fà	2b\	ſe	2d/	-na_à
=42-	=42-	=42-	=42-	=42-	=42-	=42-	=42-	=42-	=42-
1AA	Dio	1A	Don-	4.cny/	ve-	1cc	fà	1a	Dio
*	*Xij	*	*	*	*	*	*	*	*
.	.	.	.	8d\	.	.	.	.	.
.	.	.	.	2e\	.	.	.	.	.
1r	.	1F	na_à	2A/	-lo	2.cc\	ve-	2r	.
*	*	*	*	*custos:A	*	*	*	*	*
!	!	!	!	!LO:LB:g=original	!	!	!	!	!
.	.	.	.	2.A/	ver-	.	.	2a\	di
.	.	.	.	.	.	4dd\	.	.	.
=43-	=43-	=43-	=43-	=43-	=43-	=43-	=43-	=43-	=43-
2r	.	2E/	Dio	.	.	1ee	.	2b\	ſe
.	.	.	.	4G#X/	-gi-	.	.	.	.
2E\	di	2e\	di	2G#/	-ne	.	.	1cc	fa
2F#X\	ſe	1d	ſe	2A/	Don-	2a\	-lo	.	.
2Gny\	fa	.	.	2d\	na_à	2r	.	2.b\	ve-
=44-	=44-	=44-	=44-	=44-	=44-	=44-	=44-	=44-	=44-
2.Cny/	ve-	2c\	fa	1e	Dio	2r	.	.	.
.	.	.	.	.	.	.	.	4a\	.
*	*	*	*	*	*	*	*	*custos:a	*
!	!	!	!	!	!	!	!	!LO:LB:g=original	!
.	.	1e	ve-	.	.	2.cc\	ver-	1a	.
4D/	.	.	.	.	.	.	.	.	.
1E	.	.	.	1e	di	.	.	.	.
.	.	.	.	.	.	4cc\	-gi-	.	.
.	.	2E/	-lo	.	.	2b\	-ne	2g#X/	.
=45-	=45-	=45-	=45-	=45-	=45-	=45-	=45-	=45-	=45-
1AA	-lo	2r	.	2e\	ſe	2cc\	Do(n)-	1a	-lo
.	.	2A/	di	1fny	fa	2a\	na_à	.	.
0r	.	2B\	ſe	.	.	1g	Dio	1r	.
.	.	2c\	fa	2.e\	ve-	.	.	.	.
=46-	=46-	=46-	=46-	=46-	=46-	=46-	=46-	=46-	=46-
.	.	2.F/	ve-	.	.	1f	di	0a	di
.	.	.	.	4d\	.	.	.	.	.
.	.	.	.	1d	.	.	.	.	.
.	.	4G/	.	.	.	.	.	.	.
*	*	*custos:A	*	*	*	*	*	*	*
!	!	!LO:LB:g=original	!	!	!	!	!	!	!
2r	.	1A	.	.	.	1e	ſe	.	.
2AA/	di	.	.	2c/	-lo	.	.	.	.
=47-	=47-	=47-	=47-	=47-	=47-	=47-	=47-	=47-	=47-
2BB/	ſe	2D/	-lo	2r	.	2d/	fa	1gny	ſe
*custos:C	*	*	*	*	*	*	*	*	*
!LO:LB:g=original	!	!	!	!	!	!	!	!	!
2C/	fà	2G/	di	4r	.	2.e/	ve-	.	.
.	.	.	.	4Gny/	di	.	.	.	.
2.FF/	ve-	2A/	ſe	4c/	ſe	.	.	2f/	fa
.	.	.	.	4B/	fa	4d/	.	.	.
.	.	2F/	fà	1.A/	ve-	1d/	.	2.a\	ve-
4GG/	.	.	.	.	.	.	.	.	.
=48-	=48-	=48-	=48-	=48-	=48-	=48-	=48-	=48-	=48-
1AA	.	1E	ve-	.	.	.	.	.	.
.	.	.	.	.	.	.	.	8g/	.
.	.	.	.	.	.	.	.	8f/	.
.	.	.	.	.	.	2c#X/	.	2e/	.
1Dl	-lo.	1Dl	-lo.	1Al	-lo.	1dl	-lo	1f#Xl	-lo.
==	==	==	==	==	==	==	==	==	==
*-	*-	*-	*-	*-	*-	*-	*-	*-	*-
!!!system-decoration: [(*)]
!!LO:MO:ori
!!!RDF**kern: l = terminal long
!!LO:MO:end
!!!filter-modern: sic -sq | humtr -p | autostem -r | tie -s | shed -k -e "s/([^a-gA-Gn#X-])[<>]/$1/g" | shed -e "s/-//B"  | shed -e "s/^custos:/Xcustos:/I" | modori -m |
!!!ENC: Mateusz Solarz
!!!END: 2022-06-28
!!!ENC: Andrzej Kubiczek
!!!END: 2022-07-17
!!!ENC-modern: Leszek Kubiak
!!!END-modern: 2022-08-05
